X:1
T:Slumber Song
T:Slumber Song
T:S. Wesley Martin (1877)
C:S. Wesley Martin (1877)
%%score [ 1 2 3 4 ]
L:1/8
Q:1/4=85
M:3/4
K:Ab
V:1 treble nm="Soprano" snm="S"
V:2 treble nm="Alto" snm="A"
V:3 treble-8 nm="Tenor" snm="T"
V:4 bass nm="Bass" snm="B"
V:1
"^1""^Words by Natalie Sieboth"!p!!<(! (c2 =B2) _B2 | (A2 G2) _G2!<)! |!mp! F3!>(! F F_F | %3
w: 1.Far * a-|way * on|drow- sy pools re-|
 E2 E2 z2!>)! |!p! d4 d2 |"^6" d4 c2 | B3!<(! B AA!<)! | G2!p! A2 B2 | (c2 =B2)!<(! _B2 | %9
w: pos- ing,|Fold- ed|lil- ies|touch the wa- ter's|edge, There with|hush, * with|
 A4 c2!<)! |"^11" c3!>(! e d=d | =d2!>)! e2 z2 |!p! (A2 B2) =B2 | cc _c2 A2 | %14
w: hush and|shad- ow, night is|clos- ing;|Brown * birds|nes- tle low with-|
"^rit."!<(! (A2- A)G!<)!!>(! (FG)!>)! | A4 z2 |"^17""^a  tempo"!p!!<(! (F2 A2) c2!<)! | %17
w: in * * the *|sedge.|Here * the|
!f!!>(! (f2 c2) (AG)!>)! |!<(! (F2 A2) c2!<)! |!f! f4 z2 |!p! z2!<(! d2 d2!<)! |!f! d4!>(! z2!>)! | %22
w: sea- * waves *|moan * and|sob,|Snow- flakes|whirl,|
"^23" z2 d2 d2 |!<(! (d2- !>!d2)!<)!!ff! !>!=d !fermata!z"^dolce" |!p! e4 c2 |!<(! d4 A2!<)! | %26
w: wind- gusts|throb, * *|But my|babe lies|
!mp! =d3!>(! d _dd!>)! | c3 z z2 |"^29"!p! e4 c2 |!<(! d4 A2!<)! |!mp! F3!>(! F _FF!>)! | E6- | %32
w: close- ly to me|prest;|Sleep, my|ba- by|oh, my ba- by|rest,|
!p! E2 z2 z2 |"^37" E3 F EF | E2 z2 z2 |!p! E3 F EF | (E2 D2) C2 |"^rit." F4!>(! D2!>)! | %38
w: |Sweet, my ba- by,|rest,|Sweet, my ba- by,|rest, * my|ba- by|
 !fermata!E6 :| %39
w: rest.|
V:2
!p!!<(! (E2 =D2) _D2 | (C2 B,2) A,2!<)! |!mp! D3!>(! D DD | C2 C2 z2!>)! |!p! F4 F2 | E4 E2 | %6
w: 2.Far * a-|way * in|in- land for- ests|dus- ky,|Nuts fall|still- y|
!<(! =DE F2 F2!<)! | E2 z2 z2 |!p! (E2 =D2)!<(! _D2 | (C2 E2) _G2!<)! | F3!>(! F FF | %11
w: on the moss- y|mod,|Rip- * ened|ber- * ries|breathe out fra- grance|
 F2!>)! E2 z2 |!p! (D2 E2) F2 | EE =D2 _C2"^rit." |!<(! (C2 B,2)!<)!!>(! D2!>)! | C4 z2 | %16
w: musk- y,|Dream- * ing|squir- rels i- dly|blink * and|nod.|
"^a  tempo"!<(! z2!p! A,2 A,2!<)! |!f!!>(! A,2 A,2 z2!>)! |!<(! z2 A,2 A,2!<)! |!f! A,4 z2 | %20
w: Here the|crest- ed|break- ers|dash,|
!p! (B,2!<(! D2) F2!<)! | (B!f!=A)!>(!BF (DC) | (B,2!>)! D2) F2 | %23
w: Sea- * birds|scream, * * * and *|storm- * winds|
!<(! (EF) !>!G2-!<)!!ff! !>!G !fermata!z |"^dolce"!p! A4 _G2 |!<(! F4 E2!<)! | %26
w: clash, * * *|But my|babe lies|
!mp! F3!>(! F _FF!>)! | E3 z z2 |!p! (A2 G2) _G2 |!<(! (F2 =E2) _E2!<)! |!mp! =D3!>(! D _DD!>)! | %31
w: close- ly to me|prest;|Sleep, * my|ba- * by|oh, my ba- by|
 C6- | C2 z2 z2 |!p! C3 D CD | C2 z2 z2 |!p! C3 D CD | (C2 B,2) E2 |"^rit." (E2 D)C!>(! B,2!>)! | %38
w: rest,||Sweet, my ba- by,|rest,|Sweet, my ba- by,|rest, * my|ba- * * by|
 !fermata!C6 :| %39
w: rest.|
V:3
!p!!<(! (E2 F2) G2 | (A2 B2) c2!<)! |!mp! c3!>(! B FG | (A>B) A2 z2!>)! |!p! (Bc) B2 F2 | %5
w: 1.Far * a-|way * on|drow- sy pools re-|pos- * ing,|Fold- * * ed|
 (Bc) B2 E2 |!<(! (AG) AB c=d!<)! | e2!p! z2 z2 | (E2 F2)!<(! G2 | (A2 c2) e2!<)! | e3!>(! c BA | %11
w: lil- * * ies|touch * * the wa- ter's|edge,|hush, * with|hush * and|shad- ow night is|
 G2!>)! G2 z2 |!p! (F2 G2) A2 | AE A2 =D2 |"^rit."!<(! E4!<)! E2 |!>(! E4 z2!>)! | %16
w: clos- ing,|Brown * birds|nest- le low with-|in the|sedge.|
"^a  tempo"!p!!<(! z2 C2 C2!<)! |!f! C2!>(! C2 z2!>)! |!<(! z2 C2 C2!<)! |!f! C4 z2 | %20
w: Here the|sea- waves|moan and|sob,|
!p! z2!<(! F2 F2!<)! |!f! F4!>(! z2 | z2!>)! F2 F2 |!<(! (GA !>!B2!<)! !>!=B) !fermata!z | %24
w: Snow- flakes|whirl,|wind- gusts|throb, * * *|
"^dolce"!p! c4 e2 |!<(! A4 c2!<)! |!mp! B3!>(! A GB!>)! | A3 z z2 |!p! (c2- c)e (f!<(!e) | %29
w: But my|babe lies|close- ly to me|prest;|Sleep, * * my *|
 (A2- A)c (dc)!<)! |!mp! B3!>(! A GB!>)! | A4 z2 |!p! B3 A cB | A4 z2 | %34
w: ba- * * by *|oh, my ba- by|rest,|Sweet, my ba- by,|rest;|
!<(! B3 A!<)!!mf! (c/!>(!B/) (d/c/)!>)! |!p! A6- | A4 A2 |"^rit." A4!>(! A2!>)! | !fermata!A6 :| %39
w: Sweet, my ba- * by, *|rest,|* my|ba- by,|rest.|
V:4
!p! A,,4!<(! A,,2 | A,,4 A,,2!<)! |!mp! A,,3!>(! A,, A,,A,, | A,,2 A,,2 z2!>)! | %4
w: 2.Far a-|way in|in- land for- ests|dus- ky,|
!p! (B,2- B,)F, (B,-A,) | (G,2- G,)E, (A,G,) |!<(! F,E, =D,2 B,,2!<)! | E,2!p! F,2 G,2 | A,6- | %9
w: Nuts * * fall *|still- * * y *|on the moss- y|mod, Rip- ened|ber-|
!<(! A,4 A,2!<)! | A,3!>(! A, B,B, | (=B,2!>)! C2) C,2 |!p! D,4 =D,2 | %13
w: * ries|breathe out fra- grance|musk- * y,|Dream- ing|
"^Edition Copyright © 2002 as public domain. May be freely used." E,E, _F,2 F,2"^rit." | %14
w: squir- rels i- dly|
!<(! E,4!<)! E,2 |!>(! A,,4 z2!>)! |"^a  tempo"!p!!<(! (F,,2 A,,2) C,2!<)! | %17
w: blink and|nod.|Here * the|
!f! (F,2!>(! C,2) (A,,G,,)!>)! |!<(! (F,,2 A,,2) C,2!<)! |!f! F,4 z2 |!p! (B,,2!<(! D,2) F,2!<)! | %21
w: crest- * ed *|break- * ers|dash,|Sea- * birds|
 (B,!f!=A,)B,F, (D,C,) |!<(! (B,,2 D,2) F,2 | B,4-!<)!!ff! B, !fermata!z |"^dolce"!p! A,4 A,2 | %25
w: scream, * * * and *|storm- * winds|clash, *|But my|
!<(! A,4 A,2!<)! |!mp! A,3!>(! A, A,A,!>)! | A,3 G, F,E, |!p! A,,4 A,,2 |!<(! A,,4 A,,2!<)! | %30
w: babe lies|close- ly to me|prest; O sleep my|ba- by,|oh, my|
!mp! A,,4 A,,2 | A,,2 A,,!>(!A,, A,,A,,!>)! | A,,2 z2 z2 |!p! A,,6- | A,,2 z2 z2"^- 2 -" | %35
w: ba- by,|rest, Sweet, my ba- by,|rest,|rest,||
!p! A,,6- | A,,4 A,,2 |"^rit." A,,4!>(! A,,2!>)! | !fermata!A,,6 :| %39
w: rest,|* my|ba- by,|rest.|

